X:388
M:6/8
L:1/8
K:D
|:g|fef d2e|fga B2A|Bcd AFA|BEE E2g|fef d2e|fga B2A|Bcd AFA|FDD D2g:|
|:fef d2e|fga B2A|Bcd AFA|BEE E2g|fga efg|fea B2A|Bcd F2E|FDD D2:|

